icons/desktop/16/svg/import-data-16.svg

<svg width="16" height="16" viewBox="0 0 16 16" fill="none" xmlns="http://www.w3.org/2000/svg">
<path d="M5.41504 1.22504C7.80303 0.924042 10.2402 0.925946 12.6152 1.22895C13.975 1.40303 14.9998 2.57575 15 3.95746V13.0405C15 14.4235 13.962 15.5979 12.585 15.7729C11.398 15.9229 10.192 15.9985 9 15.9985C7.795 15.9985 6.57877 15.922 5.38477 15.77C4.02488 15.5959 3 14.4224 3 13.0405V11.4985H4.5V13.0405C4.5 13.6695 4.9622 14.2027 5.5752 14.2807C7.82714 14.5687 10.1375 14.5706 12.3975 14.2846C13.0252 14.2054 13.5 13.6693 13.5 13.0405V3.95648C13.4998 3.32768 13.0377 2.79521 12.4248 2.71723C11.2929 2.57224 10.1409 2.49848 9 2.49848C7.871 2.49848 6.72754 2.57132 5.60254 2.71332C4.97494 2.79252 4.50023 3.32785 4.5 3.95648V5.49848H3V3.95648C3.00023 2.57368 4.03819 1.40002 5.41504 1.22504Z" fill="black"/>
<path d="M6.5293 5.97211C6.5293 5.55211 7.03698 5.3421 7.33398 5.6391L9.8623 8.16742C10.0458 8.35132 10.0458 8.64856 9.8623 8.83246L7.33398 11.3608C7.03798 11.6578 6.53027 11.4478 6.53027 11.0278L6.5293 9.25043H0.75C0.335949 9.25043 0.000263763 8.91442 0 8.50043C0 8.08622 0.335786 7.75043 0.75 7.75043H6.5293V5.97211Z" fill="black"/>
</svg>

<!-- This Source Code Form is subject to the terms of the Mozilla Public
   - License, v. 2.0. If a copy of the MPL was not distributed with this
   - file, You can obtain one at http://mozilla.org/MPL/2.0/. -->
<svg xmlns="http://www.w3.org/2000/svg" width="16" height="16" fill="context-fill" fill-opacity="context-fill-opacity" viewBox="0 0 16 16">
    <path d="M5.415 1.225c2.388-.301 4.825-.3 7.2.004A2.75 2.75 0 0 1 15 3.957v9.084a2.76 2.76 0 0 1-2.415 2.732 28.7 28.7 0 0 1-7.2-.003A2.75 2.75 0 0 1 3 13.04V11.5h1.5v1.541c0 .63.462 1.163 1.075 1.24 2.252.289 4.562.29 6.823.005A1.26 1.26 0 0 0 13.5 13.04V3.957c0-.628-.462-1.16-1.075-1.239a27 27 0 0 0-6.822-.004A1.26 1.26 0 0 0 4.5 3.956v1.542H3V3.956a2.76 2.76 0 0 1 2.415-2.731" />
    <path d="M6.53 5.972c0-.42.507-.63.804-.333l2.528 2.528a.47.47 0 0 1 0 .665l-2.528 2.529a.47.47 0 0 1-.804-.333V9.25H.75a.75.75 0 0 1 0-1.5h5.78z" />
</svg>
